X: 7
T: The Tenpenny Bit
R: jig
M: 6/8
L: 1/8
K: Ador
|:eAA eAA|BAB GBd|eAA eAA|def g3|
eAA eAA|BAB GBd|def gdB|BAG A2B:||
|:e2a aga|bge dBG|e2a aga|bge g2d|
e2a aga|bge dBG|efg dBA|BAA A2:|


Tune 109	Setting 28058

